remix/Logos/google-line.svg

<svg viewBox="0 0 24 24" fill="currentColor" xmlns="http://www.w3.org/2000/svg"><path d="M12 11H20.5329C20.5769 11.3847 20.6 11.7792 20.6 12.1837C20.6 14.9184 19.6204 17.2204 17.9224 18.7837C16.4367 20.1551 14.404 20.9592 11.9796 20.9592C8.46933 20.9592 5.43266 18.947 3.9551 16.0123C3.34695 14.8 3 13.4286 3 11.9796C3 10.5306 3.34695 9.1592 3.9551 7.94698C5.43266 5.01226 8.46933 3 11.9796 3C14.4 3 16.4326 3.88983 17.9877 5.33878L16.5255 6.80101C15.3682 5.68153 13.8028 5 12 5C8.13401 5 5 8.13401 5 12C5 15.866 8.13401 19 12 19C15.5265 19 18.1443 16.3923 18.577 13H12V11Z"/></svg>

<svg viewBox="0 0 24 24" xmlns="http://www.w3.org/2000/svg"><path fill="none" d="M0 0h24v24H0Z"/><path d="M12 11h8.53c.04.38.06.78.06 1.18 0 2.734-.98 5.03-2.68 6.6 -1.49 1.37-3.52 2.17-5.942 2.17v0c-4.96 0-8.98-4.02-8.98-8.98 -.01-.01-.01-.01-.01-.01l0 0c-.01-4.96 4.01-8.98 8.97-8.98 0-.01 0-.01 0 0 2.42 0 4.45.89 6 2.339l-1.47 1.46c-1.16-1.12-2.73-1.8-4.526-1.8v0c-3.87 0-7 3.13-7 7 0 3.86 3.13 7 7 7 3.526 0 6.144-2.61 6.577-6h-6.58v-2Z"/></svg>
